images_elementary_svg/cmd/pl/sc_underlinedouble.svg

<svg viewBox="0 0 16 16" xmlns="http://www.w3.org/2000/svg" xmlns:xlink="http://www.w3.org/1999/xlink"><radialGradient id="a" cx="7.01072" cy="4.528114" gradientTransform="matrix(-1.7873592 .00000004 -.00000007 -3.9337416 19.043105 19.321482)" gradientUnits="userSpaceOnUse" r="3.431876"><stop offset="0" stop-color="#737373"/><stop offset=".262" stop-color="#636363"/><stop offset=".705" stop-color="#4b4b4b"/><stop offset="1" stop-color="#3f3f3f"/></radialGradient>

/&amp;amp;gt;<g stroke-linejoin="round"><path d="m11.298075 6.0385885q0 .72898-.224302 1.4018846-.21629.6729047-.720969 1.1936047-.5046784.5126892-1.3377984.8251092-.8251092.3044092-2.0427461.3044092h-1.2016154v4.5581278h-1.4900031v-11.7117447h2.8998985q1.0734431 0 1.8504877.2323123.7770446.2243015 1.2817228.6648938.504679.4325816.745002 1.0734431.240323.6408616.240323 1.45796zm-5.5274309 2.4593062h1.0333892q.7450016 0 1.2977446-.1281723.5607539-.1281723.9212385-.4085493.3684954-.2883877.5527431-.7369907.1842477-.4566139.1842477-1.1054862 0-1.1375292-.6568831-1.6822615-.6568831-.5527431-2.0507569-.5527431h-1.2817231z" fill="url(#a)" stroke="#000" stroke-opacity=".6" transform="matrix(1.0586091 0 0 .94463579 0 -2)"/><path d="m3.49 15.5h9.02zm0-2h9.02z" fill="none" stroke="#565656" stroke-linecap="round" stroke-width=".995"/></g></svg>

<?xml version="1.0" encoding="UTF-8" standalone="no"?>
<svg
   xmlns:dc="http://purl.org/dc/elements/1.1/"
   xmlns:cc="http://creativecommons.org/ns#"
   xmlns:rdf="http://www.w3.org/1999/02/22-rdf-syntax-ns#"
   xmlns:svg="http://www.w3.org/2000/svg"
   xmlns="http://www.w3.org/2000/svg"
   xmlns:xlink="http://www.w3.org/1999/xlink"
   xmlns:sodipodi="http://sodipodi.sourceforge.net/DTD/sodipodi-0.dtd"
   xmlns:inkscape="http://www.inkscape.org/namespaces/inkscape"
   viewBox="0 0 16 16"
   version="1.1"
   id="svg17"
   sodipodi:docname="sc_underlinedouble.svg"
   inkscape:version="0.92.4 (unknown)"
   inkscape:export-filename="/home/rizmut/Dokumen/Rizmut/Github/libreoffice-style-elementary/images_elementary/cmd/pl/sc_underlinedouble.png"
   inkscape:export-xdpi="96"
   inkscape:export-ydpi="96"><metadata
   id="metadata23">
  <rdf:RDF>
    <cc:Work
       rdf:about="">
      <dc:format>image/svg+xml</dc:format>
      <dc:type
         rdf:resource="http://purl.org/dc/dcmitype/StillImage" />
      <dc:title></dc:title>
    </cc:Work>
  </rdf:RDF>
</metadata>
<defs
   id="defs21">
  <radialGradient
     inkscape:collect="always"
     xlink:href="#a"
     id="radialGradient866"
     cx="7.0107198"
     cy="4.5281143"
     fx="7.0107198"
     fy="4.5281143"
     r="3.4318762"
     gradientTransform="matrix(-1.7873592,3.8705513e-8,-6.5038584e-8,-3.9337416,19.043105,19.321482)"
     gradientUnits="userSpaceOnUse" />
  <radialGradient
     inkscape:collect="always"
     xlink:href="#a"
     id="radialGradient828"
     gradientUnits="userSpaceOnUse"
     gradientTransform="matrix(-1.7873592,3.8705513e-8,-6.5038584e-8,-3.9337416,19.043105,19.321482)"
     cx="7.0107198"
     cy="4.5281143"
     fx="7.0107198"
     fy="4.5281143"
     r="3.4318762" />
</defs>
<sodipodi:namedview
   pagecolor="#ffffff"
   bordercolor="#666666"
   borderopacity="1"
   objecttolerance="10"
   gridtolerance="10"
   guidetolerance="10"
   inkscape:pageopacity="0"
   inkscape:pageshadow="2"
   inkscape:window-width="1366"
   inkscape:window-height="714"
   id="namedview19"
   showgrid="true"
   inkscape:zoom="10.429825"
   inkscape:cx="3.1928946"
   inkscape:cy="2.3927442"
   inkscape:window-x="0"
   inkscape:window-y="28"
   inkscape:window-maximized="1"
   inkscape:current-layer="g15">
  <inkscape:grid
     type="xygrid"
     id="grid830" />
</sodipodi:namedview>
<radialGradient
   id="a"
   cx="9.947"
   cy="2.235"
   gradientTransform="matrix(-2.99842 0 0 -3.03065 39.77 7.78)"
   gradientUnits="userSpaceOnUse"
   r="4.976">
  <stop
     offset="0"
     stop-color="#737373"
     id="stop2" />
  <stop
     offset=".262"
     stop-color="#636363"
     id="stop4" />
  <stop
     offset=".705"
     stop-color="#4b4b4b"
     id="stop6" />
  <stop
     offset="1"
     stop-color="#3f3f3f"
     id="stop8" />
</radialGradient>

/&amp;gt;<g
   id="g15"
   stroke-linejoin="round">
  <g
     aria-label="P"
     transform="matrix(1.0586091,0,0,0.94463579,0,-2)"
     style="font-style:normal;font-weight:normal;font-size:16.40605545px;line-height:1.25;font-family:sans-serif;letter-spacing:0px;word-spacing:0px;fill:url(#radialGradient866);fill-opacity:1;stroke:#000000;stroke-width:1;stroke-miterlimit:4;stroke-dasharray:none;stroke-opacity:0.6"
     id="text834">
    <path
       d="m 11.298075,6.0385885 q 0,0.72898 -0.224302,1.4018846 -0.21629,0.6729047 -0.720969,1.1936047 Q 9.8481256,9.146767 9.0150056,9.459187 8.1898964,9.7635962 6.9722595,9.7635962 H 5.7706441 V 14.321724 H 4.280641 V 2.6099793 h 2.8998985 q 1.0734431,0 1.8504877,0.2323123 0.7770446,0.2243015 1.2817228,0.6648938 0.504679,0.4325816 0.745002,1.0734431 0.240323,0.6408616 0.240323,1.45796 z M 5.7706441,8.4978947 h 1.0333892 q 0.7450016,0 1.2977446,-0.1281723 Q 8.6625318,8.2415501 9.0230164,7.9611731 9.3915118,7.6727854 9.5757595,7.2241824 9.7600072,6.7675685 9.7600072,6.1186962 9.7600072,4.981167 9.1031241,4.4364347 8.446241,3.8836916 7.0523672,3.8836916 H 5.7706441 Z"
       style="font-style:normal;font-variant:normal;font-weight:normal;font-stretch:normal;font-family:'Droid Sans';-inkscape-font-specification:'Droid Sans';fill:url(#radialGradient828);fill-opacity:1;stroke:#000000;stroke-width:1;stroke-miterlimit:4;stroke-dasharray:none;stroke-opacity:0.6"
       id="path825"
       inkscape:connector-curvature="0" />
  </g>
  <path
     inkscape:connector-curvature="0"
     style="fill:none;stroke:#565656;stroke-width:0.995;stroke-linecap:round"
     d="m 3.49,15.5 h 9.02 z m 0,-2 h 9.02 z"
     id="path13" />
</g>
</svg>
